icon/lg/armory.svg

<?xml version="1.0" encoding="UTF-8"?>
<svg viewBox="0 0 512 139" version="1.1" xmlns="http://www.w3.org/2000/svg" preserveAspectRatio="xMidYMid" height="1em" width="1em">
  <g>
    <path d="M290.926886,57.0730351 C295.84615,51.0080177 302.227114,49.4778944 309.110526,49.5718648 L309.906942,49.5897495 C310.040031,49.5938763 310.173292,49.5985623 310.306719,49.6037869 L311.10921,49.641431 C311.243271,49.6487268 311.377483,49.6565198 311.511841,49.6647892 L312.31967,49.7199569 L312.31967,49.7199569 C314.64826,49.8940028 316.989178,50.3138886 319.250324,50.9038318 C327.631724,53.0906465 332.272224,58.7282845 333.686347,67.0988063 C334.095355,69.5187701 334.262874,72.004001 334.278466,74.4609495 C334.316677,80.4631412 334.319628,86.465594 334.314911,92.4681512 L334.303407,104.755317 L334.303407,104.755317 L334.294142,105.297153 L334.294142,105.297153 L334.275023,105.810139 C334.080718,109.80051 332.870521,111.089166 328.964894,111.306355 L328.46253,111.328041 L328.46253,111.328041 L327.93136,111.339273 C327.749422,111.341304 327.56256,111.341304 327.370655,111.341304 C325.568192,111.330043 323.759927,111.241932 321.966529,111.065711 C319.825039,110.85468 318.863797,109.395958 318.566469,107.434678 C318.432308,106.546318 318.423606,105.63294 318.422881,104.731164 L318.417509,84.7226765 C318.41571,81.3879375 318.411882,78.0531851 318.403663,74.7183925 C318.400037,73.3383532 318.297785,71.9470735 318.100171,70.5811755 C317.621907,67.2761156 316.190379,65.509912 312.880606,65.0222207 C310.172016,64.6230029 307.332166,64.5461326 304.6185,64.8800832 C300.509565,65.3855416 298.750251,67.6078907 298.572942,71.9061002 C298.453648,74.7938124 298.526892,77.6898642 298.525442,80.5822902 L298.525361,95.7695978 C298.52387,98.300771 298.520244,100.831931 298.512388,103.36309 C298.5084,104.623111 298.417026,105.89147 298.250232,107.140612 C297.891987,109.823821 297.077597,110.901093 294.430286,111.133154 C291.753242,111.367753 289.023259,111.185005 286.330623,110.988841 C284.646003,110.866283 283.632911,109.692561 283.365315,108.036949 C283.15501,106.737043 283.005983,105.411394 283.001994,104.096622 L282.985275,94.032066 L282.985275,94.032066 L282.985678,73.9032773 L282.985678,73.9032773 C282.98561,73.5800516 282.980506,73.2667872 282.97013,72.9632546 L282.942275,72.3690971 C282.638709,67.3310089 280.703127,65.1707892 275.895862,64.6927259 L275.328363,64.6449619 C274.84471,64.6112662 274.334065,64.5926978 273.795327,64.5881937 C272.058856,64.5736899 270.299542,64.7303312 268.587002,65.0214956 C265.533221,65.5407326 263.892113,67.5447991 263.414937,70.5151831 C263.206082,71.8172642 263.078086,73.1469027 263.07446,74.4645755 C263.056088,81.1339191 263.055927,87.8034239 263.057001,94.472875 L263.057418,104.476984 C263.057055,105.2 263.080261,105.928092 263.004841,106.644582 C262.667265,109.853916 261.379687,111.184642 258.12938,111.283994 C255.610065,111.361226 253.073708,111.215463 250.559469,111.001532 C248.790002,110.850692 247.775459,109.674069 247.485745,107.939048 C247.327654,106.992673 247.174638,106.030707 247.172825,105.07563 L247.160656,101.030197 L247.160656,101.030197 L247.126322,92.9390426 C247.099977,86.1963878 247.092329,79.4538923 247.201108,72.7132382 C247.338894,64.159243 250.180919,56.8728823 258.275506,52.6152836 C262.530566,50.3766177 267.181944,49.6699186 271.918169,49.5850713 C274.198896,49.5440979 276.51697,49.6666553 278.763976,50.0401289 C284.245335,50.9516945 287.221521,52.7505317 290.926886,57.0730351 Z M482.101591,112.621138 C481.500488,112.611871 480.8984,112.612113 480.296036,112.615027 L478.488821,112.624948 C476.983298,112.628502 475.480473,112.60603 473.991413,112.450718 C469.887555,112.022855 466.77322,109.768597 465.317761,105.963518 C463.60776,101.493438 462.164266,96.8884728 461.03333,92.2381829 C459.458007,85.7628452 457.963314,79.2679718 456.485044,72.7691235 L454.271931,63.0198151 C453.902457,61.3950819 453.532002,59.7705866 453.159565,58.1465722 C453.065652,57.7372017 452.984431,57.3238426 452.918438,56.9093957 L452.845484,56.4210957 L452.845484,56.4210957 L452.786943,55.9587592 L452.786943,55.9587592 L452.743348,55.5217622 C452.49175,52.5500155 453.378075,51.3948671 456.227741,51.0933306 L456.648282,51.0559569 L456.648282,51.0559569 L457.096069,51.029573 L457.096069,51.029573 L457.571638,51.0135551 C457.653244,51.0117146 457.73603,51.01028 457.820007,51.0092384 C459.628272,50.9871201 461.439438,51.0462232 463.245889,51.1368721 C466.320338,51.2917005 468.119538,53.0662438 468.840378,55.9111697 C469.770436,59.5806382 470.577937,63.2820152 471.391239,66.9801288 C473.354695,75.9043342 475.286242,84.835429 477.240996,93.76181 C478.136244,97.8489888 479.265368,98.9817378 482.45911,99.0647722 C484.714093,99.1231501 485.922625,98.5139893 486.562243,96.3195601 C487.329677,93.6854836 487.961682,91.0102072 488.565335,88.3293729 L489.163505,85.648006 L489.163505,85.648006 C491.240091,76.3176933 493.261924,66.975415 495.327269,57.6422016 C495.533949,56.7081551 495.835266,55.7857116 496.184446,54.8933636 C497.020954,52.7580375 498.517386,51.3413761 500.892388,51.259792 L502.695302,51.2006188 C504.800848,51.1391596 506.911195,51.1196689 508.997853,51.3043913 C511.403313,51.5175976 512.269916,52.5542587 511.928714,54.9521041 C511.534451,57.7220935 510.95155,60.4686127 510.333723,63.2051394 L506.620576,79.4631635 C503.971714,91.0586887 501.310668,102.651465 498.546394,114.219822 C496.793969,121.55332 493.566505,128.176131 487.345088,132.893864 C482.291954,136.725775 476.513266,138.607647 470.200112,138.820853 C467.501312,138.912227 466.417877,138.181234 465.694136,135.598465 C465.247327,134.003225 464.958995,132.359443 464.705694,130.71255 L464.459497,129.066303 L464.459497,129.066303 C464.21402,127.407428 465.082437,126.258362 466.594461,125.701415 C467.325635,125.432007 468.073851,125.209373 468.825376,124.99526 L470.328768,124.567061 C470.578713,124.49381 470.828007,124.418672 471.076144,124.340231 C476.872961,122.506947 480.973556,119.01225 482.31661,112.838333 C482.241553,112.769077 482.169759,112.69692 482.101591,112.621138 Z M360.874027,81.1966723 L360.867747,82.2539116 L360.867747,82.2539116 L360.837949,84.3694302 C360.819504,85.779697 360.816011,87.1890843 360.900134,88.5932621 C361.180058,93.2750978 363.406395,96.1450428 367.534185,97.1824291 C371.324398,98.134968 375.189668,98.1937085 379.009976,97.431895 C383.730972,96.4905965 385.917062,94.5655759 386.266241,89.7648088 C386.687577,83.9734302 386.606719,78.1077195 386.219829,72.3087264 C385.930478,67.9720818 383.510514,65.6014311 379.199976,65.0988735 C375.713981,64.6924037 372.096364,64.6459914 368.620884,65.0919842 C363.627941,65.7326908 361.214142,68.6929221 360.899771,73.797907 C360.813162,75.2020848 360.81701,76.6118273 360.836284,78.0226015 L360.867385,80.1389701 C360.87137,80.4916383 360.873975,80.8442293 360.874027,81.1966723 Z M402.781025,82.0302799 C402.752864,82.3902165 402.728068,82.762665 402.705215,83.1460455 L402.641055,84.3274037 L402.641055,84.3274037 L402.5135,86.8489848 C402.393384,89.0227634 402.214973,91.3513665 401.800204,93.6373309 C400.145317,102.760239 394.597603,108.735816 385.695878,111.263108 C377.152398,113.688873 368.489624,113.535858 360.020839,110.853375 C351.713771,108.221655 346.890523,102.233025 345.523175,93.7791058 C344.191724,85.5489086 344.051399,77.1852761 345.560522,68.9735712 C347.393081,59.0032771 353.805949,53.0251617 363.542369,50.6994729 C370.863901,48.9506738 378.261941,49.0743189 385.57042,50.9496639 C395.200962,53.4211162 401.097856,60.1831635 402.145758,70.0584575 C402.259442,71.1300345 402.340976,72.2049676 402.405387,73.3068002 L402.475424,74.6434179 L402.475424,74.6434179 L402.534794,76.0148996 L402.534794,76.0148996 L402.674424,79.6554635 L402.674424,79.6554635 L402.741906,81.2201644 C402.754268,81.4869923 402.767268,81.756968 402.781025,82.0302799 Z M179.733396,86.8253905 L178.023542,86.8216243 L178.023542,86.8216243 L172.981139,86.7964735 C170.763323,86.7911252 168.570706,86.8039973 166.380084,86.8768791 C164.865522,86.9272799 163.27554,87.3649329 161.888611,87.9954868 C159.635442,89.0198197 158.702483,91.2976459 159.042598,94.0689649 C159.379449,96.8149021 160.693859,98.7544265 163.245807,98.9788733 C166.981993,99.3081102 170.798313,99.4005721 174.520721,99.0162206 C177.841372,98.6732051 179.491545,96.4512186 179.709465,93.0747274 C179.84,91.04818 179.733396,89.0064036 179.733396,86.8253905 Z M179.714541,74.8677094 C179.714541,74.4069711 179.722187,73.953431 179.731976,73.5058755 L179.762267,72.1799491 C179.783694,71.0879491 179.78412,70.0257675 179.677557,68.9744414 C179.404522,66.2821683 177.732956,64.4267661 175.126255,64.028636 C171.633734,63.4948951 168.06978,63.2189598 164.536648,63.217872 C163.015035,63.2173885 161.494282,63.3308586 159.973147,63.4706783 L157.691002,63.6892196 C156.549631,63.7974208 155.407697,63.8958051 154.264674,63.9474146 C151.571676,64.0685215 150.499843,63.1573185 150.162992,60.4632324 C149.948698,58.7459792 150.008163,56.9732488 150.135797,55.2396787 C150.32906,52.6141232 151.881695,51.0433587 154.442346,50.6212973 L155.106795,50.5139416 L155.106795,50.5139416 L156.435407,50.312799 C165.512727,49.0021059 174.555967,49.0258185 183.387636,52.0379587 C191.381058,54.7639532 195.543657,60.7141487 195.606023,69.1292698 C195.668752,77.565784 195.656424,86.003386 195.609287,94.4402629 C195.5636,102.587788 191.33247,108.570617 183.49025,110.908997 C174.153049,113.692644 164.677698,113.635717 155.305686,110.96665 C148.295261,108.970198 144.116346,104.276034 143.313559,96.9711809 C142.547757,90.0006411 143.626116,83.561304 149.877991,79.1365486 C153.413299,76.6342756 157.499753,75.4837595 161.748287,75.2379196 C166.381399,74.9698254 171.030335,74.9687942 175.675176,74.9027671 L178.055826,74.8644605 L178.055826,74.8644605 L179.714541,74.8677094 L179.714541,74.8677094 Z M206.156797,98.3537764 L206.170213,90.6699202 L206.170213,90.6699202 L206.170213,71.1445042 L206.170213,71.1445042 C206.170938,58.889132 213.383329,51.0131907 225.683301,49.9036478 C228.081871,49.6871782 230.497846,49.5733231 232.905845,49.5733231 C236.545218,49.5733231 238.186688,50.9069502 238.61999,54.4701781 C238.886861,56.6649699 238.838635,58.9290175 238.654799,61.1394009 C238.460811,63.4723417 237.518062,64.301598 235.158652,64.4937738 C233.418555,64.6355487 231.658153,64.4999379 229.911167,64.5855105 C224.014998,64.8734115 222.085626,66.8879932 222.075473,72.7856123 L222.066261,83.1511223 L222.066261,83.1511223 L222.070397,103.88182 C222.070397,104.303881 222.075111,104.72558 222.069672,105.147641 C222.010706,109.701303 220.685304,111.204373 216.405715,111.340405 L215.888503,111.350204 L215.888503,111.350204 L214.076824,111.366071 C213.170863,111.371684 212.265084,111.368129 211.361133,111.328085 C207.717409,111.167455 206.228591,109.686977 206.186892,106.037089 C206.157522,103.476257 206.153534,100.915062 206.156797,98.3537764 Z M413.11047,87.6349579 L413.11047,71.3627505 L413.11047,71.3627505 C413.111195,59.0261569 420.168033,51.1752347 432.46039,49.9293559 C434.975716,49.6744511 437.51715,49.5649472 440.04553,49.5780006 C443.6733,49.5972182 445.386564,51.1940897 445.64437,54.7903139 C445.794484,56.886117 445.781794,59.0094775 445.636393,61.1060058 C445.479389,63.3744046 444.627651,64.2417335 442.365779,64.4473253 C441.441316,64.5313957 440.511924,64.5586569 439.581228,64.57335 L437.719174,64.5990869 C437.098625,64.6108189 436.478572,64.6300735 435.860087,64.669959 C431.434607,64.9553218 429.608575,66.7258767 429.10638,71.1227122 C429.035601,71.7431859 429.019589,72.3715498 429.015829,72.9987069 L429.003765,104.747662 L429.003765,104.747662 C429.002677,105.647625 428.950101,106.553751 428.836609,107.446462 C428.557047,109.647055 427.281798,111.035072 425.077579,111.154728 C422.379142,111.301217 419.658224,111.27656 416.959786,111.113755 C414.823735,110.985033 413.600337,109.648506 413.345795,107.503389 L413.22463,106.500038 C413.167499,105.997689 413.122508,105.494609 413.120986,104.992052 C413.101043,99.2064746 413.11047,93.420535 413.11047,87.6349579 Z" fill="#0C4062"/>
    <path d="M104.295215,38.3413773 L104.295215,17.1480211 L125.568705,17.1480211 L125.568705,38.3413773 L104.295215,38.3413773 Z M132.732255,30.2020465 L146.631998,30.2020465 L146.631998,17.0978378 L132.732255,17.0978378 L132.732255,30.2020465 Z M119.32129,10.5769167 L131.818876,10.5769167 L131.818876,0 L119.32129,0 L119.32129,10.5769167 Z M138.830389,9.21500721 L146.688563,9.21500721 L146.688563,2.21654754 L138.830389,2.21654754 L138.830389,9.21500721 Z" fill="#00BCDD"/>
    <path d="M14.0400682,41.9702714 C13.8703735,53.5784103 13.9686369,64.9450604 15.954211,76.2141723 C17.4919793,84.9429386 20.0584317,93.268136 25.2402869,100.601634 C32.6528309,111.092253 42.6793273,118.239014 54.3451189,123.325507 C56.0438797,124.06629 57.4793961,124.212779 59.1074508,123.244648 C60.496555,122.418655 62.0209073,121.818559 63.4883321,121.123826 C82.1214002,112.301147 93.8615239,98.2541895 97.2499807,77.5615779 C99.168112,65.8490115 99.4955359,54.0958343 99.370803,42.2897182 C99.3697152,42.1947181 99.249696,42.1008059 99.1459936,41.9488783 C83.6791113,40.4629611 69.8261424,34.8412773 57.6962284,25.0526437 C44.6007219,34.6694069 30.1871801,40.4285145 14.0400682,41.9702714 M112.809688,38.3414136 C112.845222,44.1186509 113.010203,49.8987891 112.889821,55.672763 C112.619687,68.6406358 111.543141,81.5066191 107.139416,93.8606174 C101.346224,110.111794 90.2439065,121.866059 75.4887995,130.270302 C69.9769823,133.409293 63.9687714,135.687845 58.1433089,138.260099 C57.3463235,138.612179 56.188918,138.684336 55.3774288,138.391721 C40.9729519,133.201163 28.1635335,125.575051 18.1297852,113.782351 C9.46338527,103.597037 4.43382026,91.7619134 2.5907463,78.6185444 C1.56460046,71.3013631 1.08960009,63.9069489 0.349542258,56.5491569 C0.318721624,56.2431261 0.120381774,55.9537747 7.10542736e-15,55.6564462 C7.10542736e-15,51.1961565 7.10542736e-15,46.7358667 7.10542736e-15,42.2752144 C0.219732996,40.0561287 0.460133948,37.838856 0.653760054,35.6175947 C0.856088456,33.2955318 1.01381759,30.9698429 1.20490552,28.4635814 C23.5117932,29.5992312 42.2964262,22.072107 57.7585948,6.01056768 C69.8522493,20.6848158 85.5620708,27.723161 104.295215,28.4701082 C106.874721,28.4701082 109.454227,28.4701082 112.137435,28.4701082 C112.370947,31.8977253 112.590317,35.1193882 112.809688,38.3414136" fill="#0C4062"/>
    <path d="M57.6957207,44.8115713 C61.3002846,49.2689603 64.715211,53.4728949 68.1091067,57.6938715 C73.8859815,64.8783428 79.6302226,72.0889209 85.4371928,79.2487357 C86.3654378,80.3930877 86.6468121,81.4609321 86.2040827,82.883395 C84.9455131,86.9245241 82.4222096,91.801799 80.3604904,93.7667051 C72.846057,84.4465451 65.3425015,75.1398012 57.6946329,65.6535724 C50.1276232,75.0560416 42.6625029,84.3323275 35.0226114,93.8258082 C34.397859,92.9167807 33.7865226,92.2010168 33.3688124,91.3862643 C32.1610061,89.0312052 31.1062152,86.5967376 29.8505463,84.2688732 C28.5778353,81.9101882 29.0800304,80.0199768 30.7251271,78.0151851 C38.5220225,68.5133647 46.2275438,58.9368496 53.9671491,49.3882543 C55.1347073,47.947299 56.30988,46.5121452 57.6957207,44.8115713" fill="#00BCDD"/>
  </g>
</svg>

<svg width="512" height="139" xmlns="http://www.w3.org/2000/svg" preserveAspectRatio="xMidYMid"><path d="M290.927 57.073c4.92-6.065 11.3-7.595 18.184-7.501l.796.018.4.014.802.037.403.024.808.055c2.328.174 4.67.594 6.93 1.184 8.382 2.187 13.022 7.824 14.436 16.195.41 2.42.577 4.905.592 7.362.039 6.002.042 12.005.037 18.007l-.012 12.287-.009.542-.019.513c-.194 3.99-1.404 5.28-5.31 5.496l-.502.022-.532.011c-.182.002-.368.002-.56.002a59.11 59.11 0 0 1-5.404-.275c-2.142-.211-3.103-1.67-3.4-3.631-.135-.889-.143-1.802-.144-2.704l-.005-20.008c-.002-3.335-.006-6.67-.014-10.005a29.528 29.528 0 0 0-.304-4.137c-.478-3.305-1.91-5.071-5.22-5.559-2.708-.399-5.548-.476-8.262-.142-4.108.506-5.868 2.728-6.045 7.026-.12 2.888-.046 5.784-.048 8.676V95.77a3019.7 3019.7 0 0 1-.013 7.593 29.322 29.322 0 0 1-.262 3.778c-.358 2.683-1.172 3.76-3.82 3.992-2.677.235-5.407.052-8.1-.144-1.684-.123-2.697-1.296-2.965-2.952-.21-1.3-.359-2.626-.363-3.94l-.017-10.065V73.903c0-.323-.004-.636-.015-.94l-.028-.594c-.303-5.038-2.239-7.198-7.046-7.676l-.568-.048a25.124 25.124 0 0 0-1.533-.057 29.754 29.754 0 0 0-5.208.433c-3.054.52-4.695 2.524-5.172 5.494a25.489 25.489 0 0 0-.34 3.95c-.019 6.669-.02 13.338-.018 20.008v10.004c0 .723.023 1.451-.052 2.168-.338 3.209-1.625 4.54-4.876 4.639-2.519.077-5.055-.069-7.57-.282-1.769-.151-2.784-1.328-3.073-3.063-.158-.946-.311-1.908-.313-2.863l-.012-4.046-.035-8.091c-.026-6.743-.034-13.485.075-20.226.138-8.554 2.98-15.84 11.075-20.098 4.255-2.238 8.906-2.945 13.642-3.03 2.28-.04 4.599.082 6.846.455 5.481.912 8.458 2.71 12.163 7.033Zm191.175 55.548a89.183 89.183 0 0 0-1.806-.006l-1.807.01c-1.506.004-3.009-.019-4.498-.174-4.103-.428-7.218-2.682-8.673-6.487a113.747 113.747 0 0 1-4.285-13.726c-1.575-6.475-3.07-12.97-4.548-19.469l-2.213-9.75c-.37-1.624-.74-3.248-1.112-4.872-.094-.41-.176-.823-.242-1.238l-.073-.488-.058-.462-.044-.437c-.251-2.972.635-4.127 3.485-4.429l.42-.037.448-.026.476-.016.248-.005c1.808-.022 3.62.037 5.426.128 3.074.155 4.874 1.93 5.594 4.774.93 3.67 1.738 7.371 2.551 11.07 1.964 8.923 3.895 17.854 5.85 26.78.895 4.088 2.024 5.22 5.218 5.304 2.255.058 3.464-.551 4.103-2.745.768-2.635 1.4-5.31 2.003-7.99l.599-2.682c2.076-9.33 4.098-18.673 6.163-28.006.207-.934.508-1.856.857-2.749.837-2.135 2.333-3.552 4.708-3.633l1.803-.06c2.106-.06 4.216-.08 6.303.104 2.405.214 3.272 1.25 2.93 3.648-.394 2.77-.976 5.517-1.594 8.253l-3.713 16.258c-2.65 11.596-5.31 23.188-8.075 34.757-1.752 7.333-4.98 13.956-11.2 18.674-5.054 3.832-10.833 5.714-17.146 5.927-2.699.091-3.782-.64-4.506-3.223-.447-1.595-.735-3.239-.988-4.885l-.247-1.647c-.245-1.659.623-2.808 2.135-3.365.732-.269 1.48-.492 2.231-.706l1.504-.428c.25-.073.499-.148.747-.227 5.797-1.833 9.898-5.328 11.24-11.502a3.284 3.284 0 0 1-.214-.217ZM360.874 81.197l-.006 1.057-.03 2.115c-.018 1.41-.022 2.82.062 4.224.28 4.682 2.506 7.552 6.634 8.59 3.79.952 7.656 1.01 11.476.249 4.721-.941 6.907-2.866 7.256-7.667.422-5.792.34-11.657-.046-17.456-.29-4.337-2.71-6.708-7.02-7.21-3.486-.407-7.104-.453-10.58-.007-4.992.64-7.406 3.6-7.72 8.706-.087 1.404-.083 2.814-.064 4.225l.031 2.116c.004.353.007.705.007 1.058Zm41.907.833c-.028.36-.053.733-.076 1.116l-.064 1.181-.127 2.522c-.12 2.174-.299 4.502-.714 6.788-1.655 9.123-7.202 15.099-16.104 17.626-8.544 2.426-17.206 2.273-25.675-.41-8.307-2.631-13.13-8.62-14.498-17.074-1.331-8.23-1.472-16.594.038-24.805 1.832-9.97 8.245-15.949 17.981-18.275 7.322-1.748 14.72-1.625 22.028.25 9.631 2.472 15.528 9.234 16.576 19.11.113 1.071.195 2.146.26 3.248l.07 1.336.059 1.372.14 3.64.067 1.565.039.81Zm-223.048 4.795-1.71-.003-5.042-.026c-2.218-.005-4.41.008-6.6.08-1.515.051-3.105.489-4.492 1.12-2.254 1.024-3.187 3.302-2.846 6.073.336 2.746 1.65 4.685 4.203 4.91 3.736.33 7.552.422 11.275.037 3.32-.343 4.97-2.565 5.188-5.941.131-2.027.024-4.069.024-6.25Zm-.018-11.957c0-.461.007-.915.017-1.362l.03-1.326c.022-1.092.022-2.154-.084-3.206-.273-2.692-1.945-4.547-4.552-4.945a70.484 70.484 0 0 0-10.59-.811c-1.521 0-3.042.113-4.563.253l-2.282.218a69.596 69.596 0 0 1-3.426.258c-2.693.122-3.765-.79-4.102-3.484-.214-1.717-.155-3.49-.027-5.223.193-2.626 1.746-4.197 4.306-4.619l.665-.107 1.328-.201c9.078-1.31 18.121-1.287 26.953 1.725 7.993 2.726 12.156 8.676 12.218 17.091.063 8.437.05 16.874.003 25.311-.045 8.148-4.277 14.13-12.119 16.469-9.337 2.784-18.812 2.727-28.184.058-7.01-1.997-11.19-6.691-11.992-13.996-.766-6.97.312-13.41 6.564-17.834 3.535-2.503 7.622-3.653 11.87-3.9 4.633-.267 9.282-.268 13.927-.334l2.38-.039 1.66.004Zm26.442 23.486.013-7.684V71.145c0-12.256 7.213-20.132 19.513-21.241a80.46 80.46 0 0 1 7.223-.33c3.64 0 5.28 1.333 5.714 4.896.267 2.195.219 4.459.035 6.67-.194 2.332-1.137 3.162-3.496 3.354-1.74.142-3.5.006-5.248.092-5.896.287-7.825 2.302-7.836 8.2l-.009 10.365.004 20.73c0 .423.005.845 0 1.267-.06 4.553-1.385 6.056-5.664 6.192l-.517.01-1.812.016c-.906.006-1.812.002-2.716-.038-3.644-.16-5.132-1.641-5.174-5.29a602.99 602.99 0 0 1-.03-7.684ZM413.11 87.635V71.363c.001-12.337 7.058-20.188 19.35-21.434a71.69 71.69 0 0 1 7.586-.351c3.627.02 5.34 1.616 5.598 5.212.15 2.096.138 4.22-.008 6.316-.157 2.268-1.008 3.136-3.27 3.341a37.23 37.23 0 0 1-2.785.126l-1.862.026c-.62.012-1.24.031-1.859.071-4.425.285-6.251 2.056-6.754 6.453-.07.62-.086 1.249-.09 1.876l-.012 31.749c-.001.9-.054 1.806-.167 2.698-.28 2.201-1.555 3.59-3.76 3.709-2.698.146-5.419.122-8.117-.041-2.136-.129-3.36-1.465-3.614-3.61l-.121-1.004a13.735 13.735 0 0 1-.104-1.508c-.02-5.786-.01-11.571-.01-17.357Z" fill="#0C4062"/><path d="M104.295 38.341V17.148h21.274v21.193h-21.274Zm28.437-8.139h13.9V17.098h-13.9v13.104Zm-13.41-19.625h12.497V0H119.32v10.577Zm19.508-1.362h7.859V2.217h-7.859v6.998Z" fill="#00BCDD"/><path d="M14.04 41.97c-.17 11.608-.071 22.975 1.914 34.244 1.538 8.729 4.104 17.054 9.286 24.388 7.413 10.49 17.44 17.637 29.105 22.724 1.699.74 3.134.887 4.762-.081 1.39-.826 2.914-1.426 4.381-2.121 18.633-8.823 30.374-22.87 33.762-43.562 1.918-11.713 2.246-23.466 2.12-35.272 0-.095-.12-.19-.224-.341-15.467-1.486-29.32-7.108-41.45-16.896C44.601 34.669 30.187 40.429 14.04 41.97m98.77-3.629c.035 5.778.2 11.558.08 17.332-.27 12.968-1.347 25.834-5.75 38.188-5.794 16.25-16.896 28.005-31.651 36.41-5.512 3.138-11.52 5.417-17.346 7.99-.797.351-1.954.423-2.766.13-14.404-5.19-27.213-12.816-37.247-24.609C9.463 103.597 4.434 91.762 2.59 78.62 1.566 71.3 1.09 63.907.35 56.549c-.031-.306-.23-.595-.35-.893v-13.38c.22-2.22.46-4.437.654-6.658.202-2.322.36-4.648.55-7.154C23.513 29.599 42.297 22.072 57.76 6.01c12.093 14.674 27.803 21.712 46.536 22.46h7.842l.673 9.87" fill="#0C4062"/><path d="M57.696 44.812c3.604 4.457 7.02 8.66 10.413 12.882 5.777 7.184 11.521 14.395 17.328 21.555.928 1.144 1.21 2.212.767 3.634-1.258 4.042-3.782 8.919-5.844 10.884L57.695 65.654 35.023 93.826c-.625-.91-1.236-1.625-1.654-2.44-1.208-2.355-2.263-4.79-3.518-7.117-1.273-2.359-.771-4.249.874-6.254 7.797-9.502 15.503-19.078 23.242-28.627 1.168-1.44 2.343-2.876 3.729-4.576" fill="#00BCDD"/></svg>
